(Header)
(Generated by gcodetools from Inkscape.)
(Using default header. To add your own header create file "header" in the output dir.)
M3
(Header end.)
G21 (All units in mm)

(Start cutting path id: circle52)
(Change tool to Default tool)

G00 Z5.000000
G00 X27.199994 Y28.599990

G01 Z-0.125000 F100.0(Penetrate)
G03 X26.731365 Y29.731361 Z-0.125000 I-1.600000 J-0.000000 F400.000000
G03 X25.599994 Y30.199990 Z-0.125000 I-1.131371 J-1.131371
G03 X24.468623 Y29.731361 Z-0.125000 I-0.000000 J-1.600000
G03 X23.999994 Y28.599990 Z-0.125000 I1.131371 J-1.131371
G03 X24.468623 Y27.468619 Z-0.125000 I1.600000 J-0.000000
G03 X25.599994 Y26.999990 Z-0.125000 I1.131371 J1.131371
G03 X26.731365 Y27.468619 Z-0.125000 I-0.000000 J1.600000
G03 X27.199994 Y28.599990 Z-0.125000 I-1.131371 J1.131371
G01 X27.199994 Y28.599990 Z-0.125000
G00 Z5.000000

(End cutting path id: circle52)


(Start cutting path id: circle50)
(Change tool to Default tool)

G00 Z5.000000
G00 X343.200004 Y28.599990

G01 Z-0.125000 F100.0(Penetrate)
G03 X342.731378 Y29.731357 Z-0.125000 I-1.600000 J0.000000 F400.000000
G03 X341.600014 Y30.199990 Z-0.125000 I-1.131374 J-1.131367
G03 X340.987714 Y30.078203 Z-0.125000 I-0.000020 J-1.600000
G03 X340.468630 Y29.731368 Z-0.125000 I0.612280 J-1.478213
G03 X340.121789 Y29.212288 Z-0.125000 I1.131364 J-1.131378
G03 X339.999994 Y28.599990 Z-0.125000 I1.478205 J-0.612298
G03 X340.121789 Y27.987692 Z-0.125000 I1.600000 J-0.000000
G03 X340.468630 Y27.468612 Z-0.125000 I1.478205 J0.612298
G03 X340.987714 Y27.121777 Z-0.125000 I1.131364 J1.131378
G03 X341.600014 Y26.999990 Z-0.125000 I0.612280 J1.478213
G03 X342.731378 Y27.468623 Z-0.125000 I-0.000010 J1.600000
G03 X343.200004 Y28.599990 Z-0.125000 I-1.131374 J1.131367
G01 X343.200004 Y28.599990 Z-0.125000
G00 Z5.000000

(End cutting path id: circle50)


(Start cutting path id: circle48)
(Change tool to Default tool)

G00 Z5.000000
G00 X362.200024 Y124.100000

G01 Z-0.125000 F100.0(Penetrate)
G03 X362.078229 Y124.712298 Z-0.125000 I-1.600000 J-0.000000 F400.000000
G03 X361.731388 Y125.231378 Z-0.125000 I-1.478205 J-0.612298
G03 X361.212304 Y125.578213 Z-0.125000 I-1.131364 J-1.131378
G03 X360.600004 Y125.700000 Z-0.125000 I-0.612280 J-1.478213
G03 X359.468640 Y125.231367 Z-0.125000 I0.000010 J-1.600000
G03 X359.000014 Y124.100000 Z-0.125000 I1.131374 J-1.131367
G03 X359.468640 Y122.968633 Z-0.125000 I1.600000 J0.000000
G03 X360.600004 Y122.500000 Z-0.125000 I1.131374 J1.131367
G03 X361.212304 Y122.621787 Z-0.125000 I0.000020 J1.600000
G03 X361.731388 Y122.968622 Z-0.125000 I-0.612280 J1.478213
G03 X362.078229 Y123.487702 Z-0.125000 I-1.131364 J1.131378
G03 X362.200024 Y124.100000 Z-0.125000 I-1.478205 J0.612298
G01 X362.200024 Y124.100000 Z-0.125000
G00 Z5.000000

(End cutting path id: circle48)


(Start cutting path id: circle46)
(Change tool to Default tool)

G00 Z5.000000
G00 X8.199998 Y124.100000

G01 Z-0.125000 F100.0(Penetrate)
G03 X8.078205 Y124.712293 Z-0.125000 I-1.600000 J-0.000000 F400.000000
G03 X7.731369 Y125.231371 Z-0.125000 I-1.478207 J-0.612293
G03 X7.212291 Y125.578207 Z-0.125000 I-1.131371 J-1.131371
G03 X6.599998 Y125.700000 Z-0.125000 I-0.612293 J-1.478207
G03 X5.987705 Y125.578207 Z-0.125000 I0.000000 J-1.600000
G03 X5.468627 Y125.231371 Z-0.125000 I0.612293 J-1.478207
G03 X5.121791 Y124.712293 Z-0.125000 I1.131371 J-1.131371
G03 X4.999998 Y124.100000 Z-0.125000 I1.478207 J-0.612293
G03 X5.121791 Y123.487707 Z-0.125000 I1.600000 J-0.000000
G03 X5.468627 Y122.968629 Z-0.125000 I1.478207 J0.612293
G03 X5.987705 Y122.621793 Z-0.125000 I1.131371 J1.131371
G03 X6.599998 Y122.500000 Z-0.125000 I0.612293 J1.478207
G03 X7.212291 Y122.621793 Z-0.125000 I0.000000 J1.600000
G03 X7.731369 Y122.968629 Z-0.125000 I-0.612293 J1.478207
G03 X8.078205 Y123.487707 Z-0.125000 I-1.131371 J1.131371
G03 X8.199998 Y124.100000 Z-0.125000 I-1.478207 J0.612293
G01 X8.199998 Y124.100000 Z-0.125000
G00 Z5.000000

(End cutting path id: circle46)


(Start cutting path id: circle44)
(Change tool to Default tool)

G00 Z5.000000
G00 X354.200004 Y132.100004

G01 Z-0.125000 F100.0(Penetrate)
G03 X353.731378 Y133.231371 Z-0.125000 I-1.600000 J0.000000 F400.000000
G03 X352.600014 Y133.700004 Z-0.125000 I-1.131374 J-1.131367
G03 X351.987714 Y133.578217 Z-0.125000 I-0.000020 J-1.600000
G03 X351.468630 Y133.231382 Z-0.125000 I0.612280 J-1.478213
G03 X351.121789 Y132.712302 Z-0.125000 I1.131364 J-1.131378
G03 X350.999994 Y132.100004 Z-0.125000 I1.478205 J-0.612298
G03 X351.121789 Y131.487706 Z-0.125000 I1.600000 J-0.000000
G03 X351.468630 Y130.968626 Z-0.125000 I1.478205 J0.612298
G03 X351.987714 Y130.621791 Z-0.125000 I1.131364 J1.131378
G03 X352.600014 Y130.500004 Z-0.125000 I0.612280 J1.478213
G03 X353.731378 Y130.968637 Z-0.125000 I-0.000010 J1.600000
G03 X354.200004 Y132.100004 Z-0.125000 I-1.131374 J1.131367
G01 X354.200004 Y132.100004 Z-0.125000
G00 Z5.000000

(End cutting path id: circle44)


(Start cutting path id: circle42)
(Change tool to Default tool)

G00 Z5.000000
G00 X343.200004 Y52.599990

G01 Z-0.125000 F100.0(Penetrate)
G03 X342.731378 Y53.731357 Z-0.125000 I-1.600000 J0.000000 F400.000000
G03 X341.600014 Y54.199990 Z-0.125000 I-1.131374 J-1.131367
G03 X340.987714 Y54.078203 Z-0.125000 I-0.000020 J-1.600000
G03 X340.468630 Y53.731368 Z-0.125000 I0.612280 J-1.478213
G03 X340.121789 Y53.212288 Z-0.125000 I1.131364 J-1.131378
G03 X339.999994 Y52.599990 Z-0.125000 I1.478205 J-0.612298
G03 X340.121789 Y51.987692 Z-0.125000 I1.600000 J-0.000000
G03 X340.468630 Y51.468612 Z-0.125000 I1.478205 J0.612298
G03 X340.987714 Y51.121777 Z-0.125000 I1.131364 J1.131378
G03 X341.600014 Y50.999990 Z-0.125000 I0.612280 J1.478213
G03 X342.731378 Y51.468623 Z-0.125000 I-0.000010 J1.600000
G03 X343.200004 Y52.599990 Z-0.125000 I-1.131374 J1.131367
G01 X343.200004 Y52.599990 Z-0.125000
G00 Z5.000000

(End cutting path id: circle42)


(Start cutting path id: circle40)
(Change tool to Default tool)

G00 Z5.000000
G00 X354.200004 Y116.099990

G01 Z-0.125000 F100.0(Penetrate)
G03 X353.731378 Y117.231357 Z-0.125000 I-1.600000 J0.000000 F400.000000
G03 X352.600014 Y117.699990 Z-0.125000 I-1.131374 J-1.131367
G03 X351.987714 Y117.578203 Z-0.125000 I-0.000020 J-1.600000
G03 X351.468630 Y117.231368 Z-0.125000 I0.612280 J-1.478213
G03 X351.121789 Y116.712288 Z-0.125000 I1.131364 J-1.131378
G03 X350.999994 Y116.099990 Z-0.125000 I1.478205 J-0.612298
G03 X351.121789 Y115.487692 Z-0.125000 I1.600000 J-0.000000
G03 X351.468630 Y114.968612 Z-0.125000 I1.478205 J0.612298
G03 X351.987714 Y114.621777 Z-0.125000 I1.131364 J1.131378
G03 X352.600014 Y114.499990 Z-0.125000 I0.612280 J1.478213
G03 X353.731378 Y114.968623 Z-0.125000 I-0.000010 J1.600000
G03 X354.200004 Y116.099990 Z-0.125000 I-1.131374 J1.131367
G01 X354.200004 Y116.099990 Z-0.125000
G00 Z5.000000

(End cutting path id: circle40)


(Start cutting path id: circle38)
(Change tool to Default tool)

G00 Z5.000000
G00 X358.199994 Y124.100000

G01 Z-0.125000 F100.0(Penetrate)
G03 X356.559800 Y128.059794 Z-0.125000 I-5.600000 J0.000004 F400.000000
G03 X352.600014 Y129.700004 Z-0.125000 I-3.959806 J-3.959789
G03 X350.456980 Y129.273735 Z-0.125000 I-0.000020 J-5.600000
G03 X348.640202 Y128.059808 Z-0.125000 I2.143014 J-5.173731
G03 X347.426269 Y126.243033 Z-0.125000 I3.959792 J-3.959803
G03 X346.999994 Y124.100000 Z-0.125000 I5.173725 J-2.143029
G03 X347.426271 Y121.956968 Z-0.125000 I5.600000 J-0.000000
G03 X348.640203 Y120.140195 Z-0.125000 I5.173723 J2.143032
G03 X350.456981 Y118.926269 Z-0.125000 I3.959791 J3.959805
G03 X352.600014 Y118.500000 Z-0.125000 I2.143013 J5.173731
G03 X356.559799 Y120.140209 Z-0.125000 I-0.000020 J5.600000
G03 X358.199994 Y124.100000 Z-0.125000 I-3.959805 J3.959791
G01 X358.199994 Y124.100000 Z-0.125000
G00 Z5.000000

(End cutting path id: circle38)


(Start cutting path id: circle36)
(Change tool to Default tool)

G00 Z5.000000
G00 X24.199994 Y124.100000

G01 Z-0.125000 F100.0(Penetrate)
G03 X23.731366 Y125.231369 Z-0.125000 I-1.600000 J-0.000000 F400.000000
G03 X22.599998 Y125.700000 Z-0.125000 I-1.131372 J-1.131369
G03 X21.468627 Y125.231371 Z-0.125000 I0.000000 J-1.600000
G03 X20.999998 Y124.100000 Z-0.125000 I1.131371 J-1.131371
G03 X21.468627 Y122.968629 Z-0.125000 I1.600000 J0.000000
G03 X22.599998 Y122.500000 Z-0.125000 I1.131371 J1.131371
G03 X23.731366 Y122.968631 Z-0.125000 I-0.000004 J1.600000
G03 X24.199994 Y124.100000 Z-0.125000 I-1.131372 J1.131369
G01 X24.199994 Y124.100000 Z-0.125000
G00 Z5.000000

(End cutting path id: circle36)


(Start cutting path id: circle34)
(Change tool to Default tool)

G00 Z5.000000
G00 X349.200014 Y40.599990

G01 Z-0.125000 F100.0(Penetrate)
G03 X348.621498 Y43.508384 Z-0.125000 I-7.600000 J0.000000 F400.000000
G03 X346.974026 Y45.974002 Z-0.125000 I-7.021484 J-2.908394
G03 X344.508408 Y47.621474 Z-0.125000 I-5.374011 J-5.374012
G03 X341.600014 Y48.199990 Z-0.125000 I-2.908394 J-7.021484
G03 X338.691620 Y47.621474 Z-0.125000 I-0.000000 J-7.600000
G03 X336.226002 Y45.974002 Z-0.125000 I2.908394 J-7.021484
G03 X334.578530 Y43.508384 Z-0.125000 I5.374011 J-5.374011
G03 X334.000014 Y40.599990 Z-0.125000 I7.021485 J-2.908394
G03 X334.578530 Y37.691596 Z-0.125000 I7.600000 J-0.000000
G03 X336.226002 Y35.225978 Z-0.125000 I7.021484 J2.908394
G03 X338.691620 Y33.578506 Z-0.125000 I5.374011 J5.374012
G03 X341.600014 Y32.999990 Z-0.125000 I2.908394 J7.021484
G03 X344.508408 Y33.578506 Z-0.125000 I0.000000 J7.600000
G03 X346.974026 Y35.225978 Z-0.125000 I-2.908394 J7.021484
G03 X348.621498 Y37.691596 Z-0.125000 I-5.374011 J5.374012
G03 X349.200014 Y40.599990 Z-0.125000 I-7.021484 J2.908394
G01 X349.200014 Y40.599990 Z-0.125000
G00 Z5.000000

(End cutting path id: circle34)


(Start cutting path id: circle32)
(Change tool to Default tool)

G00 Z5.000000
G00 X33.199994 Y40.599990

G01 Z-0.125000 F100.0(Penetrate)
G03 X32.621478 Y43.508384 Z-0.125000 I-7.600000 J-0.000000 F400.000000
G03 X30.974006 Y45.974002 Z-0.125000 I-7.021484 J-2.908394
G03 X28.508388 Y47.621474 Z-0.125000 I-5.374011 J-5.374012
G03 X25.599994 Y48.199990 Z-0.125000 I-2.908394 J-7.021484
G03 X20.225985 Y45.974000 Z-0.125000 I0.000004 J-7.600000
G03 X17.999998 Y40.599990 Z-0.125000 I5.374013 J-5.374010
G03 X20.225985 Y35.225980 Z-0.125000 I7.600000 J-0.000000
G03 X25.599994 Y32.999990 Z-0.125000 I5.374013 J5.374010
G03 X28.508388 Y33.578506 Z-0.125000 I0.000000 J7.600000
G03 X30.974006 Y35.225978 Z-0.125000 I-2.908394 J7.021484
G03 X32.621478 Y37.691596 Z-0.125000 I-5.374011 J5.374012
G03 X33.199994 Y40.599990 Z-0.125000 I-7.021484 J2.908394
G01 X33.199994 Y40.599990 Z-0.125000
G00 Z5.000000

(End cutting path id: circle32)


(Start cutting path id: circle30)
(Change tool to Default tool)

G00 Z5.000000
G00 X27.199994 Y52.599990

G01 Z-0.125000 F100.0(Penetrate)
G03 X26.731365 Y53.731361 Z-0.125000 I-1.600000 J0.000000 F400.000000
G03 X25.599994 Y54.199990 Z-0.125000 I-1.131371 J-1.131371
G03 X24.468623 Y53.731361 Z-0.125000 I0.000000 J-1.600000
G03 X23.999994 Y52.599990 Z-0.125000 I1.131371 J-1.131371
G03 X24.468623 Y51.468619 Z-0.125000 I1.600000 J0.000000
G03 X25.599994 Y50.999990 Z-0.125000 I1.131371 J1.131371
G03 X26.731365 Y51.468619 Z-0.125000 I-0.000000 J1.600000
G03 X27.199994 Y52.599990 Z-0.125000 I-1.131371 J1.131371
G01 X27.199994 Y52.599990 Z-0.125000
G00 Z5.000000

(End cutting path id: circle30)


(Start cutting path id: circle28)
(Change tool to Default tool)

G00 Z5.000000
G00 X16.199998 Y132.100004

G01 Z-0.125000 F100.0(Penetrate)
G03 X16.078205 Y132.712297 Z-0.125000 I-1.600000 J0.000000 F400.000000
G03 X15.731369 Y133.231375 Z-0.125000 I-1.478207 J-0.612293
G03 X15.212291 Y133.578211 Z-0.125000 I-1.131371 J-1.131371
G03 X14.599998 Y133.700004 Z-0.125000 I-0.612293 J-1.478207
G03 X13.987705 Y133.578211 Z-0.125000 I0.000000 J-1.600000
G03 X13.468627 Y133.231375 Z-0.125000 I0.612293 J-1.478207
G03 X13.121791 Y132.712297 Z-0.125000 I1.131371 J-1.131371
G03 X12.999998 Y132.100004 Z-0.125000 I1.478207 J-0.612293
G03 X13.121791 Y131.487711 Z-0.125000 I1.600000 J0.000000
G03 X13.468627 Y130.968633 Z-0.125000 I1.478207 J0.612293
G03 X13.987705 Y130.621797 Z-0.125000 I1.131371 J1.131371
G03 X14.599998 Y130.500004 Z-0.125000 I0.612293 J1.478207
G03 X15.212291 Y130.621797 Z-0.125000 I-0.000000 J1.600000
G03 X15.731369 Y130.968633 Z-0.125000 I-0.612293 J1.478207
G03 X16.078205 Y131.487711 Z-0.125000 I-1.131371 J1.131371
G03 X16.199998 Y132.100004 Z-0.125000 I-1.478207 J0.612293
G01 X16.199998 Y132.100004 Z-0.125000
G00 Z5.000000

(End cutting path id: circle28)


(Start cutting path id: circle26)
(Change tool to Default tool)

G00 Z5.000000
G00 X20.199998 Y124.100000

G01 Z-0.125000 F100.0(Penetrate)
G03 X19.773725 Y126.243028 Z-0.125000 I-5.600000 J0.000004 F400.000000
G03 X18.559797 Y128.059801 Z-0.125000 I-5.173726 J-2.143024
G03 X16.743026 Y129.273729 Z-0.125000 I-3.959799 J-3.959796
G03 X14.599998 Y129.700004 Z-0.125000 I-2.143028 J-5.173725
G03 X12.456970 Y129.273729 Z-0.125000 I0.000001 J-5.600000
G03 X10.640199 Y128.059800 Z-0.125000 I2.143029 J-5.173725
G03 X9.426272 Y126.243028 Z-0.125000 I3.959800 J-3.959796
G03 X8.999999 Y124.100000 Z-0.125000 I5.173727 J-2.143024
G03 X10.640201 Y120.140202 Z-0.125000 I5.600000 J-0.000000
G03 X14.599998 Y118.500000 Z-0.125000 I3.959798 J3.959798
G03 X16.743025 Y118.926275 Z-0.125000 I0.000000 J5.600000
G03 X18.559796 Y120.140202 Z-0.125000 I-2.143027 J5.173725
G03 X19.773723 Y121.956973 Z-0.125000 I-3.959798 J3.959798
G03 X20.199998 Y124.100000 Z-0.125000 I-5.173725 J2.143027
G01 X20.199998 Y124.100000 Z-0.125000
G00 Z5.000000

(End cutting path id: circle26)


(Start cutting path id: circle24)
(Change tool to Default tool)

G00 Z5.000000
G00 X16.199998 Y116.099990

G01 Z-0.125000 F100.0(Penetrate)
G03 X16.078205 Y116.712283 Z-0.125000 I-1.600000 J-0.000000 F400.000000
G03 X15.731369 Y117.231361 Z-0.125000 I-1.478207 J-0.612293
G03 X15.212291 Y117.578197 Z-0.125000 I-1.131371 J-1.131371
G03 X14.599998 Y117.699990 Z-0.125000 I-0.612293 J-1.478207
G03 X13.987705 Y117.578197 Z-0.125000 I0.000000 J-1.600000
G03 X13.468627 Y117.231361 Z-0.125000 I0.612293 J-1.478207
G03 X13.121791 Y116.712283 Z-0.125000 I1.131371 J-1.131371
G03 X12.999998 Y116.099990 Z-0.125000 I1.478207 J-0.612293
G03 X13.121791 Y115.487697 Z-0.125000 I1.600000 J0.000000
G03 X13.468627 Y114.968619 Z-0.125000 I1.478207 J0.612293
G03 X13.987705 Y114.621783 Z-0.125000 I1.131371 J1.131371
G03 X14.599998 Y114.499990 Z-0.125000 I0.612293 J1.478207
G03 X15.212291 Y114.621783 Z-0.125000 I0.000000 J1.600000
G03 X15.731369 Y114.968619 Z-0.125000 I-0.612293 J1.478207
G03 X16.078205 Y115.487697 Z-0.125000 I-1.131371 J1.131371
G03 X16.199998 Y116.099990 Z-0.125000 I-1.478207 J0.612293
G01 X16.199998 Y116.099990 Z-0.125000
G00 Z5.000000

(End cutting path id: circle24)


(Start cutting path id: circle22)
(Change tool to Default tool)

G00 Z5.000000
G00 X349.200014 Y207.600006

G01 Z-0.125000 F100.0(Penetrate)
G03 X348.621498 Y210.508400 Z-0.125000 I-7.600000 J-0.000000 F400.000000
G03 X346.974026 Y212.974018 Z-0.125000 I-7.021484 J-2.908394
G03 X344.508408 Y214.621490 Z-0.125000 I-5.374011 J-5.374012
G03 X341.600014 Y215.200006 Z-0.125000 I-2.908394 J-7.021484
G03 X338.691620 Y214.621490 Z-0.125000 I-0.000000 J-7.600000
G03 X336.226002 Y212.974018 Z-0.125000 I2.908394 J-7.021484
G03 X334.578530 Y210.508400 Z-0.125000 I5.374011 J-5.374011
G03 X334.000014 Y207.600006 Z-0.125000 I7.021485 J-2.908394
G03 X334.578530 Y204.691612 Z-0.125000 I7.600000 J-0.000000
G03 X336.226002 Y202.225994 Z-0.125000 I7.021484 J2.908394
G03 X338.691620 Y200.578522 Z-0.125000 I5.374011 J5.374012
G03 X341.600014 Y200.000006 Z-0.125000 I2.908394 J7.021484
G03 X344.508408 Y200.578522 Z-0.125000 I0.000000 J7.600000
G03 X346.974026 Y202.225994 Z-0.125000 I-2.908394 J7.021484
G03 X348.621498 Y204.691612 Z-0.125000 I-5.374011 J5.374012
G03 X349.200014 Y207.600006 Z-0.125000 I-7.021484 J2.908394
G01 X349.200014 Y207.600006 Z-0.125000
G00 Z5.000000

(End cutting path id: circle22)


(Start cutting path id: circle20)
(Change tool to Default tool)

G00 Z5.000000
G00 X343.200004 Y219.600005

G01 Z-0.125000 F100.0(Penetrate)
G03 X342.731378 Y220.731372 Z-0.125000 I-1.600000 J0.000000 F400.000000
G03 X341.600014 Y221.200004 Z-0.125000 I-1.131374 J-1.131367
G03 X340.987714 Y221.078217 Z-0.125000 I-0.000020 J-1.600000
G03 X340.468630 Y220.731382 Z-0.125000 I0.612280 J-1.478213
G03 X340.121789 Y220.212303 Z-0.125000 I1.131364 J-1.131378
G03 X339.999994 Y219.600004 Z-0.125000 I1.478205 J-0.612298
G03 X340.121789 Y218.987706 Z-0.125000 I1.600000 J-0.000000
G03 X340.468630 Y218.468627 Z-0.125000 I1.478205 J0.612298
G03 X340.987714 Y218.121792 Z-0.125000 I1.131364 J1.131378
G03 X341.600014 Y218.000004 Z-0.125000 I0.612280 J1.478213
G03 X342.731378 Y218.468637 Z-0.125000 I-0.000010 J1.600000
G03 X343.200004 Y219.600004 Z-0.125000 I-1.131374 J1.131367
G01 X343.200004 Y219.600004 Z-0.125000
G00 Z5.000000

(End cutting path id: circle20)


(Start cutting path id: circle18)
(Change tool to Default tool)

G00 Z5.000000
G00 X343.200004 Y195.600006

G01 Z-0.125000 F100.0(Penetrate)
G03 X342.731378 Y196.731373 Z-0.125000 I-1.600000 J-0.000001 F400.000000
G03 X341.600014 Y197.200005 Z-0.125000 I-1.131374 J-1.131368
G03 X340.987715 Y197.078218 Z-0.125000 I-0.000020 J-1.600000
G03 X340.468631 Y196.731383 Z-0.125000 I0.612279 J-1.478213
G03 X340.121789 Y196.212304 Z-0.125000 I1.131363 J-1.131378
G03 X339.999994 Y195.600006 Z-0.125000 I1.478205 J-0.612299
G03 X340.121788 Y194.987707 Z-0.125000 I1.600000 J-0.000002
G03 X340.468630 Y194.468627 Z-0.125000 I1.478206 J0.612297
G03 X340.987714 Y194.121791 Z-0.125000 I1.131364 J1.131377
G03 X341.600014 Y194.000004 Z-0.125000 I0.612280 J1.478213
G03 X342.731379 Y194.468637 Z-0.125000 I-0.000010 J1.600000
G03 X343.200004 Y195.600006 Z-0.125000 I-1.131375 J1.131367
G01 X343.200004 Y195.600006 Z-0.125000
G00 Z5.000000

(End cutting path id: circle18)


(Start cutting path id: circle16)
(Change tool to Default tool)

G00 Z5.000000
G00 X346.200004 Y124.100000

G01 Z-0.125000 F100.0(Penetrate)
G03 X345.731378 Y125.231367 Z-0.125000 I-1.600000 J0.000000 F400.000000
G03 X344.600014 Y125.700000 Z-0.125000 I-1.131374 J-1.131367
G03 X343.987717 Y125.578210 Z-0.125000 I-0.000010 J-1.600000
G03 X343.468637 Y125.231374 Z-0.125000 I0.612287 J-1.478210
G03 X343.121798 Y124.712296 Z-0.125000 I1.131367 J-1.131374
G03 X343.000004 Y124.100000 Z-0.125000 I1.478206 J-0.612296
G03 X343.121798 Y123.487704 Z-0.125000 I1.600000 J-0.000000
G03 X343.468637 Y122.968626 Z-0.125000 I1.478206 J0.612296
G03 X343.987717 Y122.621790 Z-0.125000 I1.131367 J1.131374
G03 X344.600014 Y122.500000 Z-0.125000 I0.612287 J1.478210
G03 X345.731378 Y122.968633 Z-0.125000 I-0.000010 J1.600000
G03 X346.200004 Y124.100000 Z-0.125000 I-1.131374 J1.131367
G01 X346.200004 Y124.100000 Z-0.125000
G00 Z5.000000

(End cutting path id: circle16)


(Start cutting path id: circle14)
(Change tool to Default tool)

G00 Z5.000000
G00 X27.199994 Y195.600006

G01 Z-0.125000 F100.0(Penetrate)
G03 X26.731364 Y196.731376 Z-0.125000 I-1.600000 J-0.000001 F400.000000
G03 X25.599994 Y197.200005 Z-0.125000 I-1.131370 J-1.131371
G03 X24.468624 Y196.731376 Z-0.125000 I-0.000000 J-1.600000
G03 X23.999994 Y195.600006 Z-0.125000 I1.131370 J-1.131371
G03 X24.121786 Y194.987712 Z-0.125000 I1.600000 J-0.000002
G03 X24.468622 Y194.468634 Z-0.125000 I1.478208 J0.612292
G03 X24.987700 Y194.121797 Z-0.125000 I1.131372 J1.131370
G03 X25.599994 Y194.000004 Z-0.125000 I0.612294 J1.478207
G03 X26.212288 Y194.121797 Z-0.125000 I0.000000 J1.600000
G03 X26.731366 Y194.468634 Z-0.125000 I-0.612294 J1.478207
G03 X27.078202 Y194.987712 Z-0.125000 I-1.131372 J1.131370
G03 X27.199994 Y195.600006 Z-0.125000 I-1.478208 J0.612292
G01 X27.199994 Y195.600006 Z-0.125000
G00 Z5.000000

(End cutting path id: circle14)


(Start cutting path id: circle12)
(Change tool to Default tool)

G00 Z5.000000
G00 X33.199994 Y207.600006

G01 Z-0.125000 F100.0(Penetrate)
G03 X32.621478 Y210.508400 Z-0.125000 I-7.600000 J-0.000000 F400.000000
G03 X30.974006 Y212.974018 Z-0.125000 I-7.021484 J-2.908394
G03 X28.508388 Y214.621490 Z-0.125000 I-5.374011 J-5.374012
G03 X25.599994 Y215.200006 Z-0.125000 I-2.908394 J-7.021484
G03 X20.225985 Y212.974016 Z-0.125000 I0.000004 J-7.600000
G03 X17.999998 Y207.600006 Z-0.125000 I5.374013 J-5.374010
G03 X20.225985 Y202.225996 Z-0.125000 I7.600000 J-0.000000
G03 X25.599994 Y200.000006 Z-0.125000 I5.374013 J5.374010
G03 X28.508388 Y200.578522 Z-0.125000 I0.000000 J7.600000
G03 X30.974006 Y202.225994 Z-0.125000 I-2.908394 J7.021484
G03 X32.621478 Y204.691612 Z-0.125000 I-5.374011 J5.374012
G03 X33.199994 Y207.600006 Z-0.125000 I-7.021484 J2.908394
G01 X33.199994 Y207.600006 Z-0.125000
G00 Z5.000000

(End cutting path id: circle12)


(Start cutting path id: Cut021_f0005)
(Change tool to Default tool)

G00 Z5.000000
G00 X363.600014 Y3.600000

G01 Z-0.125000 F100.0(Penetrate)
G01 X363.600014 Y3.600000 Z-0.125000 F400.000000
G01 X363.600014 Y244.600004 Z-0.125000
G01 X363.600014 Y244.600004 Z-0.125000
G01 X363.600014 Y3.600000 Z-0.125000
G00 Z5.000000

(End cutting path id: Cut021_f0005)


(Start cutting path id: Cut021_f0003)
(Change tool to Default tool)

G00 Z5.000000
G00 X363.600014 Y244.600004

G01 Z-0.125000 F100.0(Penetrate)
G01 X3.599998 Y244.600004 Z-0.125000 F400.000000
G01 X3.599998 Y244.600004 Z-0.125000
G01 X363.600014 Y244.600004 Z-0.125000
G00 Z5.000000

(End cutting path id: Cut021_f0003)


(Start cutting path id: circle4)
(Change tool to Default tool)

G00 Z5.000000
G00 X27.199994 Y219.600004

G01 Z-0.125000 F100.0(Penetrate)
G03 X26.731365 Y220.731375 Z-0.125000 I-1.600000 J-0.000000 F400.000000
G03 X25.599994 Y221.200004 Z-0.125000 I-1.131371 J-1.131371
G03 X24.468623 Y220.731375 Z-0.125000 I0.000000 J-1.600000
G03 X23.999994 Y219.600004 Z-0.125000 I1.131371 J-1.131371
G03 X24.468623 Y218.468634 Z-0.125000 I1.600000 J0.000000
G03 X25.599994 Y218.000004 Z-0.125000 I1.131371 J1.131371
G03 X26.731365 Y218.468634 Z-0.125000 I0.000000 J1.600000
G03 X27.199994 Y219.600004 Z-0.125000 I-1.131371 J1.131371
G01 X27.199994 Y219.600004 Z-0.125000
G00 Z5.000000

(End cutting path id: circle4)


(Start cutting path id: Cut021_f0001)
(Change tool to Default tool)

G00 Z5.000000
G00 X3.599998 Y3.600000

G01 Z-0.125000 F100.0(Penetrate)
G01 X3.599998 Y3.600000 Z-0.125000 F400.000000
G01 X363.600014 Y3.600000 Z-0.125000
G01 X363.600014 Y3.600000 Z-0.125000
G01 X3.599998 Y3.600000 Z-0.125000
G00 Z5.000000

(End cutting path id: Cut021_f0001)


(Start cutting path id: Cut021_f0000)
(Change tool to Default tool)

G00 Z5.000000
G00 X3.599998 Y244.600004

G01 Z-0.125000 F100.0(Penetrate)
G01 X3.599998 Y3.600000 Z-0.125000 F400.000000
G01 X3.599998 Y3.600000 Z-0.125000
G01 X3.599998 Y244.600004 Z-0.125000
G00 Z5.000000

(End cutting path id: Cut021_f0000)


(Footer)
M5
G00 X0.0000 Y0.0000
M2
(Using default footer. To add your own footer create file "footer" in the output dir.)
(end)
